X:36
T:Larid\'e 
M:4/4
L:1/8
K:C
EA/A/ AG AB Ac|Bc dc BA cA|\
EA/A/ AG AB Ac|Bc dc Bc A2:|\
|:e/e/e fe dc Bd|
e/e/e ge dc B2:|\
|:Bc dd ec A2|E/A/c BA GA ~B2|\
Bc dd ec A2|E/A/c BA Bc  ~A2:|
